X: 27
T: Scott Joplin's New Rag
C: Scott Joplin
%%abc-version 2.0
%%abcx-abcm2ps-target-version 5.9.1 (29 Sep 2008)
%%abc-creator hum2abc beta
%%abcx-conversion-date 2021/07/20 09:00:57
%%abc-copyright 2021 Craig Stuart Sapp
%%abc-edited-by Craig Stuart Sapp
%%abcx-initial-encoding-date 2005/01/22
%%humdrum-veritas 2785532362
%%humdrum-veritas-data 2225144601
%%removed 0's from note length
%%linebreak <none>
%%barnumbers 0
L: 1/8
M: 2/4
N: Derived from newrag.krn
Q: "Allegro Moderato" 1/4=100
%%staves {1 2}
V: 1 clef=treble
V: 2 clef=bass
K: C
[V:1] C/D/E/F/- F/G/A/B/ | 
[V:2] E,/F,/G,/A,/- A,/B,/C/D/ | 
[V:1] c/B/A/G/- G/F/E | 
[V:2] E/D/C/B,/- B,/A,/G, | 
[V:1] G/A/G/^F/ G/A/G/F/ | 
[V:2] E/F/E/^D/ E/F/E/D/ | 
[V:1] G [gG][^fA][=fB] ]|:  
[V:2] E [EE,][^D^D,][=D=D,] ]|:  
[V:1] [ec]>e [^d/c/]e/g/[c'/e/]- | 
[V:2] G,/A,/G,z2 & C,2[G,G,,][CG,E,] | 
[V:1] [c'/e/]b/[ae] [a/^d/][g3/e3/] | 
[V:2] C,[ECG,] C,[ECG,] | 
[V:1] [ec]>[ec] [^d/^A/]e/[g/A/]e/ | 
[V:2] G,/A,/G,z2 & C,2[^C^C,][ECG,] | 
[V:1] [fB]f/e/ d/d'/d/^d/ | 
[V:2] [DD,][FB,G,] [G,G,,][FB,G,] | 
[V:1] [ec]>e [^d/c/]e/g/[c'/e/]- | 
[V:2] !accent!G,/A,/G,z2 & C,2G,,[ECG,] | 
[V:1] [c'/e/]b/[ae] [a/^d/][g3/e3/] | 
[V:2] [C,C,,][ECG,] G,,[CG,E,] | 
[V:1] [c'/a/^d/]^f/a/!accent![b/a/d/]- [b/a/d/]c'/[bad] | 
[V:2] [^F,^F,,][^FB,A,] [B,,B,,,][F^DA,] | 
[V:1] [e'bge] !accent![gG]!accent![^fA]!accent![fB] | 
[V:2] [E,E,,] !accent![EE,]!accent![^D^D,]!accent![=D=D,] | 
[V:1] [ec]>e [^d/c/]e/g/[c'/e/]- | 
[V:2] G,/A,/G,z2 & C,2[G,G,,][CG,E,] | 
[V:1] [c'/e/]b/[ae] [a/^d/][g3/e3/] | 
[V:2] C,[CG,E,] C,[CG,E,] | 
[V:1] [d'^ge][e'/e/][d'/g/e/]- [d'/g/e/]e'/[d'ge] | 
[V:2] [B,B,,][E,E,,] [^F,^F,,][^G,^G,,] | 
[V:1] [c'/a/]e'/c'/a/ e/c/A/E/ | 
[V:2] [A,A,,] zz2 | 
[V:1] FG/A/- A/B/c | 
[V:2] [D,D,,][DA,F,] [F,F,,][DA,F,] | 
[V:1] !accent![a2^d2A2][g2e2G2] | 
[V:2] [^F,^F,,][^DA,F,] [G,G,,][ECG,] | 
[V:1] [a/f/B/]!accent![gfB]!accent![g/f/B/]- [g/f/B/]a/g |[1 
[V:2] [G,G,,]!accent![A,A,,]!accent![B,B,,]!accent![G,G,,] | 
[V:1] [c'ec]!accent![gG]!accent![^fA][=fB] :|][2 
[V:2] [CC,]!accent![EE,]!accent![^D^D,]!accent![=D=D,] :|]  
[V:1] [c'ec] e/f/- f/^d/e | 
[V:2] [C,C,,] E/F/- F/^D/E | 
[V:1] e/^f/^g/a/ b/c'/d'/e'/ | 
[V:2] [EE,][DD,][CC,][B,B,,] | 
[V:1] [d'/a/e/]c'/b/!accent![c'/a/e/]- [c'/a/e/]b/a | 
[V:2] [A,A,,][CA,E,] [E,E,,][CA,E,] | 
[V:1] [c'/^g/d/]b/^a/!accent![b/g/d/]- [b/g/d/]=a/g | 
[V:2] B,,[D^G,E,] E,,[DG,E,] | 
[V:1] [b/e/c/]a/^g/!accent![a/e/c/]- [a/e/c/]^d/e | 
[V:2] A,,[CA,E,] C,[CA,E,] | 
[V:1] e/^f/^g/a/ b/c'/d'/e'/ | 
[V:2] [EE,][DD,][CC,][B,B,,] | 
[V:1] [d'/a/e/]c'/b/[c'/a/e/]- [c'/a/e/]b/a | 
[V:2] [A,A,,][CA,E,] [E,E,,][CA,E,] | 
[V:1] a/c'/b/a/- a/b/a & ^dd- dd | 
[V:2] [F,F,,]!accent![A2^D2B,2]!accent![F,F,,] | 
[V:1] [^ge]e/f/- f/^d/e | 
[V:2] [E,E,,]E/F/- F/^D/E | 
[V:1] e/^f/^g/a/ b/c'/d'/e'/ | 
[V:2] [EE,][DD,][CC,][B,B,,] | 
[V:1] [d'/a/e/]c'/b/[c'/a/e/]- [c'/a/e/]b/a | 
[V:2] [A,A,,][CA,E,] [E,E,,][CA,E,] | 
[V:1] [c'/^g/d/]b/^a/[b/g/d/]- [b/g/d/]=a/g | 
[V:2] B,,[D^G,E,] E,,[DG,E,] | 
[V:1] b/a/^g/a/- a/a/[aec] | 
[V:2] [A,A,,][ECA,] [CC,][EE,] | 
[V:1] [a/d/A/]f/d/A/- A/d/[fA] | 
[V:2] [FF,][FDA,] [EE,][DD,] | 
[V:1] e/c/A/E/- E/F/E | 
[V:2] [EE,][CA,E,] [DD,][CC,] | 
[V:1] d/c/B/e/- e/d/c/B/ |[1 
[V:2] [B,B,,][ED^G,] [E,E,,][EDG,] | 
[V:1] A e/f/- f/^d/e :|][2 
[V:2] [ECA,] E/F/- F/^D/E :|]  
[V:1] z2Bd/^d/ & AcB2 | 
[V:2] z2DB, & [E2C2A,2][F2G,2] | 
[V:1] [ec]>e [^d/c/]e/g/[c'/e/]- | 
[V:2] G,/A,/G,z2 & C,2[G,G,,][CG,E,] | 
[V:1] [c'/e/]b/[ae] [a/^d/][g3/e3/] | 
[V:2] C,[CG,E,] G,,[CG,E,] | 
[V:1] [ec]>[ec] [^d/^A/]e/[g/A/]e/ | 
[V:2] G,/A,/G,z2 & C,2[^C^C,][ECG,] | 
[V:1] [fB]f/e/ d/.d'/d/^d/ | 
[V:2] [DD,][FB,G,] [G,G,,][FB,G,] | 
[V:1] [ec]>e [^d/c/]e/g/[c'/e/]- | 
[V:2] G,/A,/G,z2 & C,2[G,G,,][CG,E,] | 
[V:1] [c'/e/]b/[ae] [a/^d/][g3/e3/] | 
[V:2] C,[CG,E,] G,,[CG,E,] | 
[V:1] [c'/a/^d/]^f/a/!accent![b/a/d/]- [b/a/d/]c'/[bad] | 
[V:2] [^F,^F,,][^FB,A,] B,,[F^DA,] | 
[V:1] [e'bge] .!accent![gG][^fA]!accent![=fB] | 
[V:2] [E,E,,] !accent![EE,]!accent![^D^D,]!accent![=D=D,] | 
[V:1] [ec]>e [^d/c/]e/g/[c'/e/]- | 
[V:2] G,/A,/G,z2 & C,2[G,G,,][CG,E,] | 
[V:1] [c'/e/]b/[ae] [a/^d/][g3/e3/] | 
[V:2] C,[CG,E,] G,,[CG,E,] | 
[V:1] [d'^ge][e'/g/e/][d'/g/e/]- [d'/g/e/]e'/[d'ge] | 
[V:2] [B,B,,][E,E,,] [^F,^F,,][^G,^G,,] | 
[V:1] [c'/a/]e'/c'/a/ e/c/A/E/ | 
[V:2] [A,A,,][ECA,]z2 | 
[V:1] FG/A/- A/B/c | 
[V:2] [D,D,,][DA,F,] [F,F,,][DA,F,] | 
[V:1] !accent![a2^d2A2]!accent![g2e2G2] | 
[V:2] [^F,^F,,][^DA,F,] [G,G,,][ECG,] | 
[V:1] [a/f/B/]!accent![gfB]!accent![g/f/B/]- [g/f/B/]a/[gfB] | 
[V:2] !accent![G,G,,]!accent![A,A,,] !accent![B,B,,]!accent![G,G,,] | 
[V:1] [c'ec] [g/G/][g/G/] [gG][ge^cG] ]|:  
[V:2] !accent![CC,] z z [^A,^A,,] ]|:  
[V:1] [g2f2d2G2]-[g/f/d/G/]g/[dBG] | 
[V:2] [B,B,,][FB,G,] !accent![G,G,,]!accent![F,F,,] | 
[V:1] [c/G/]!accent!g[g/e/G/]- [geG][^ged^G] | 
[V:2] !accent![E,E,,][ECG,] [EE,][DD,] | 
[V:1] [a2e2^c2A2]-[a/e/c/A/]a/[ecA] | 
[V:2] [^C^C,][CA,G,E,] !accent![A,A,,]!accent![G,G,,] | 
[V:1] [d/A/]!accent!a[a/f/A/]- [afA][ae_B] | 
[V:2] [F,F,,][DA,F,] [DD,][^C^C,] | 
[V:1] [af=B]>^A B/!accent![gfB]B/ | 
[V:2] [DD,][FB,G,] [G,G,,][FB,G,] | 
[V:1] [a/f/]^A/B/[g/e/]- [g/e/]B/[gfd] | 
[V:2] [DD,][FB,G,] !accent![G,G,,]!accent![B,B,,] | 
[V:1] [aec]>B c/!accent![ge]c/ | 
[V:2] [CC,][ECG,] [E,E,,][ECG,] | 
[V:1] [a/e/c/]B/c/[g/e/c/]- [gec][ge^cG] | 
[V:2] [G,G,,][CG,E,] [CC,][^A,^A,,] | 
[V:1] [g2f2d2G2]-[g/f/d/G/]g/[dBG] | 
[V:2] [B,B,,][B,G,F,D,] !accent![G,G,,]!accent![F,F,,] | 
[V:1] [c/G/]!accent!g[g/e/G/]- [geG][^ged^G] | 
[V:2] [E,E,,][ECG,] !accent![EE,]!accent![DD,] | 
[V:1] [a2e2^c2A2]-[a/e/c/A/]a/[ecA] | 
[V:2] !accent![^C^C,][ECG,] !accent![A,A,,]!accent![G,G,,] | 
[V:1] [d/A/]a[a/f/A/]- [a/f/A/]f/[adA] | 
[V:2] [F,F,,][DA,F,] [D,D,,][F,F,,] | 
[V:1] [a^dc]>^f d/f/[adc] | 
[V:2] !accent![^F,^F,,]!accent![G,G,,] !accent![A,A,,]!accent![F,F,,] | 
[V:1] [gec][a/e/c/][g/e/c/]- [g/e/c/]G/[e_BG] | 
[V:2] [G,G,,][ECG,] [E,E,,][^C,^C,,] | 
[V:1] [fAF]d/c/ B/d/A/B/ |[1 
[V:2] [D,D,,][DA,F,] [G,G,,][B,G,F,] | 
[V:1] [cE][g/G/][g/G/] [gG][ge^cG] :|][2 
[V:2] [CG,E,C,] z z [^A,^A,,] :|]  
[V:1] [cE]e/f/ ^f/g/a/b/ | 
[V:2] [CG,E,C,] zz2 | 
[V:1] [c'^fec][c'2f2e2c2][afeA] | 
[V:2] [A,A,,][A,2A,,2][CC,] | 
[V:1] z2B/f/b & !accent![b^f^dB]^F/B/- z/ F/B | 
[V:2] !accent![B,B,,]^F,/B,/- B,/ z3/ | 
[V:1] [a^feA]!accent![c'2f2e2c2]!accent![c'fec] | 
[V:2] !accent![CC,]!accent![A,2A,,2]!accent![A,A,,] | 
[V:1] !accent![b^f^dB]B/^A/ B | 
[V:2] !accent![B,B,,]B,/^A,/ B, | 
[V:1]  [K:G] e/f/ [I:setbarnb 76]| 
[V:2]  [K:G] z | 
[V:1] g/f/=f/e/- e/^c/B/_B/ | 
[V:2] [B,G,E,][B,G,E,]!accent![^C2_B,2G,2E,2] | 
[V:1] A/=B/c/A/ c/^d/f | 
[V:2] [=C2A,2G,2E,2][C2A,2F,2^D,2] | 
[V:1] g/f/=f/e/- e/^c/B/_B/ | 
[V:2] [B,G,E,][B,G,E,][^C2_B,2G,2E,2] | 
[V:1] A/B/c/A/ FA/B/ | 
[V:2] [=C2A,2E,2][CA,^D,]F/G/ | 
[V:1] cF/G/ A^D/E/ | 
[V:2] A^D/E/ FC/^C/ | 
[V:1] FC/=D/ _EA,/B,/ | 
[V:2] ^DA,/B,/ CF,/G,/ | 
[V:1] z2C2 & CA,/B,/ C!accent![c'fec] | 
[V:2] A,F,/G,/ A, !accent![A,A,,] | 
[V:1] !accent![bf^dB]B/^A/ Be/f/ | 
[V:2] !accent![B,B,,] B,/^A,/ B, z | 
[V:1] g/f/=f/e/- e/^c/B/_B/ | 
[V:2] [B,G,E,][B,G,E,]!accent![^C2_B,2G,2E,2] | 
[V:1] A/=B/c/A/ c/^d/f | 
[V:2] [=C2=A,2G,2E,2]!accent![C2A,2F,2^D,2] | 
[V:1] g/f/=f/e/- e/^c/B/_B/ | 
[V:2] [B,G,E,][B,G,E,]!accent![^C2_B,2G,2E,2] | 
[V:1] A/=B/c/A/ F z | 
[V:2] [=C2A,2E,2]!accent![CA,^D,] z | 
[V:1] a/_a/g/f/- f/=f/e/_e/ | 
[V:2] F/=F/E/^D/- D/=D/^C/=C/ | 
[V:1] d/^c/=c/B/- B/_B/A/_A/ | 
[V:2] D/^C/=C/B,/- B,/_B,/A,/_A,/ | 
[V:1] Gg/f/ gg/a/ | 
[V:2] G,[K:clef=treble] G/F/ GG/A/ | 
[V:1] g !accent![gG]!accent![fA][=fB] | 
[V:2] G[K:clef=bass] [EE,][^D^D,][=D=D,] | 
[V:1]  [K:C] [ec]>e [^d/c/]e/g/[c'/e/]- | 
[V:2]  [K:C] G,/A,/G,z2 & C,2[G,G,,][CG,E,] | 
[V:1] [c'/e/]b/[ae] [a/^d/][g3/e3/] | 
[V:2] C,[ECG,] C,[ECG,] | 
[V:1] [ec]>[ec] [^d/^A/]e/[g/A/]e/ | 
[V:2] G,/A,/G,z2 & C,2[^C^C,][ECG,] | 
[V:1] [fB]f/e/ d/d'/d/^d/ | 
[V:2] [DD,][FB,G,] [G,G,,][FB,G,] | 
[V:1] [ec]>e [^d/c/]e/g/[c'/e/]- | 
[V:2] !accent!G,/A,/G,z2 & C,2G,,[ECG,] | 
[V:1] [c'/e/]b/[ae] [a/^d/][g3/e3/] | 
[V:2] [C,C,,][ECG,] G,,[CG,E,] | 
[V:1] [c'/a/^d/]^f/a/[b/a/d/]- [b/a/d/]c'/[bad] | 
[V:2] [^F,^F,,][^FB,A,] [B,,B,,,][F^DA,] | 
[V:1] [e'bge] !accent![gG]!accent![^fA]!accent![=fB] | 
[V:2] [E,E,,] !accent![EE,]!accent![^D^D,]!accent![=D=D,] | 
[V:1] [ec]>e [^d/c/]e/g/[c'/e/]- | 
[V:2] G,/A,/G,z2 & C,2[G,G,,][CG,E,] | 
[V:1] [c'/e/]b/[ae] [a/^d/][g3/e3/] | 
[V:2] C,[CG,E,] C,[CG,E,] | 
[V:1] [d'^ge][e'/g/e/][d'/-g/e/-] [d'/g/e/]e'/[d'ge] | 
[V:2] [B,B,,][E,E,,] [^F,^F,,][^G,^G,,] | 
[V:1] [c'/a/]e'/c'/a/ e/c/A/E/ | 
[V:2] [A,A,,] zz2 | 
[V:1] FG/A/- A/B/c | 
[V:2] [D,D,,][DA,F,] [F,F,,][DA,F,] | 
[V:1] !accent![a2^d2A2]!accent![g2e2G2] | 
[V:2] [^F,^F,,][^DA,F,] [G,G,,][ECG,] | 
[V:1] [a/f/B/]!accent![gfB][g/f/B/]- [g/f/B/]a/g | 
[V:2] !accent![G,G,,]!accent![A,A,,]!accent![B,B,,]!accent![A,G,,] | 
[V:1] c'/b/_b/a/- a/_a/g/^f/ | 
[V:2] [CG,E,C,] zz2 | 
[V:1] =f/e/_e/d/- d/=e/f | 
[V:2] z4 | 
[V:1] [afdA] z z [bfdB] | 
[V:2] D,E,/F,/- F,/D,/[G,G,,] | 
[V:1] [c'gec] zz2 |]  
[V:2] [C,C,,] zz2 |]  


